packages/dnb-eufemia/assets/icons/brush_medium.svg

<svg width="24" height="24" viewBox="0 0 24 24" fill="none" xmlns="http://www.w3.org/2000/svg">
<path d="M7.67575 14.2849C7.23258 14.0945 6.75278 13.9896 6.26159 13.981C5.29008 13.9638 4.34985 14.3244 3.63898 14.9868C3.28416 15.3486 3.00509 15.7776 2.8181 16.2486C2.63111 16.7196 2.53995 17.2232 2.54998 17.7298C2.39998 21.4848 0.987976 22.9418 0.987976 22.9418C2.42948 23.192 3.91054 23.0803 5.29827 22.6169C6.686 22.1536 7.93698 21.3529 8.93898 20.2868C9.60138 19.576 9.96199 18.6357 9.94485 17.6642C9.9369 17.2137 9.84802 16.7728 9.68646 16.361M7.67575 14.2849C8.10909 14.4711 8.5074 14.739 8.84708 15.0787C9.21555 15.4472 9.49961 15.8846 9.68646 16.361M7.67575 14.2849L8.49997 13.2218L10.8141 10.4998M9.68646 16.361L10.817 15.3997L13.4568 13.1415M10.8141 10.4998L18.133 1.89083C18.381 1.59996 18.6866 1.36357 19.0305 1.19652C19.3743 1.02947 19.7491 0.93538 20.131 0.920165C20.513 0.904949 20.894 0.968938 21.2501 1.10811C21.6061 1.24728 21.9296 1.45862 22.2 1.72883C22.4709 1.99924 22.6829 2.32285 22.8225 2.67925C22.9621 3.03565 23.0264 3.41712 23.0113 3.7996C22.9962 4.18208 22.902 4.55728 22.7346 4.90155C22.5673 5.24581 22.3304 5.55166 22.039 5.79983L13.4568 13.1415M10.8141 10.4998L13.4568 13.1415" stroke="black" stroke-width="1.5" stroke-linecap="round" stroke-linejoin="round"/>
</svg>

<svg width="24" height="24" viewBox="0 0 24 24" fill="none" xmlns="http://www.w3.org/2000/svg"><path d="M7.676 14.285a3.748 3.748 0 0 0-4.037.702A3.81 3.81 0 0 0 2.55 17.73C2.4 21.485.988 22.942.988 22.942a8.837 8.837 0 0 0 7.951-2.655 3.75 3.75 0 0 0 .747-3.926m-2.01-2.076a3.75 3.75 0 0 1 2.01 2.076m-2.01-2.076.824-1.063 2.314-2.722m-1.128 5.86 1.131-.961 2.64-2.258M10.814 10.5l7.319-8.61a2.77 2.77 0 0 1 4.69.79 2.772 2.772 0 0 1-.784 3.12l-8.582 7.342M10.814 10.5l2.643 2.642" stroke="#000" stroke-width="1.5" stroke-linecap="round" stroke-linejoin="round"/></svg>
